v2/perps-v2/ui/public/asset-icons/GBP.svg

<svg width="16" height="20" viewBox="0 0 16 20" fill="none" xmlns="http://www.w3.org/2000/svg">
<path d="M0.581573 16.6516C1.4581 16.6516 2.11549 16.4507 2.55375 16.049C2.99201 15.629 3.21114 14.9716 3.21114 14.0768V11.2829H0.608965V8.46157H3.21114V5.99636C3.21114 5.1381 3.3481 4.36201 3.62201 3.6681C3.89592 2.95592 4.2794 2.35331 4.77244 1.86027C5.26549 1.36723 5.85897 0.983748 6.55288 0.709835C7.24679 0.435922 8.02288 0.298965 8.88114 0.298965C9.6481 0.298965 10.3603 0.417662 11.0177 0.655054C11.6933 0.892444 12.2777 1.2394 12.7707 1.69592C13.2637 2.15244 13.6472 2.70027 13.9211 3.3394C14.2133 3.97853 14.3594 4.6907 14.3594 5.47592H10.9355C10.9355 4.85505 10.762 4.33462 10.4151 3.91462C10.0681 3.47636 9.55679 3.25723 8.88114 3.25723C8.13244 3.25723 7.57549 3.49462 7.21027 3.9694C6.84505 4.44418 6.66244 5.06505 6.66244 5.83201V8.46157H10.5794V11.2829H6.66244V14.1042C6.66244 14.3416 6.64418 14.5881 6.60766 14.8437C6.57114 15.0994 6.4981 15.3459 6.38853 15.5833C6.29722 15.8207 6.1694 16.0307 6.00505 16.2133C5.8407 16.3777 5.6307 16.4872 5.37505 16.542V16.5968H9.78505C10.6433 16.5968 11.2459 16.3959 11.5929 15.9942C11.9581 15.5924 12.1407 14.9716 12.1407 14.1316H15.4003C15.4003 15.9577 14.9255 17.3364 13.9759 18.2677C13.0264 19.199 11.6477 19.6646 9.83983 19.6646H0.581573V16.6516Z" fill="white"/>
</svg>

<svg width="16" height="20" fill="none" xmlns="http://www.w3.org/2000/svg"><path d="M.582 16.652c.876 0 1.533-.201 1.972-.603.438-.42.657-1.077.657-1.972v-2.794H.61V8.462h2.602V5.996c0-.858.137-1.634.411-2.328a5.113 5.113 0 0 1 1.15-1.808A5.164 5.164 0 0 1 6.552.71c.695-.274 1.47-.411 2.33-.411.766 0 1.478.119 2.136.356a4.97 4.97 0 0 1 1.753 1.04 4.773 4.773 0 0 1 1.15 1.644c.292.64.438 1.352.438 2.137h-3.424c0-.62-.173-1.141-.52-1.561-.347-.439-.858-.658-1.534-.658-.749 0-1.306.238-1.67.712-.366.475-.549 1.096-.549 1.863v2.63h3.917v2.82H6.662v2.822c0 .238-.018.484-.054.74a2.65 2.65 0 0 1-.22.74c-.09.237-.219.447-.383.63a1.232 1.232 0 0 1-.63.328v.055h4.41c.858 0 1.46-.201 1.808-.603.365-.402.548-1.022.548-1.862h3.26c0 1.826-.476 3.204-1.425 4.136-.95.931-2.328 1.397-4.136 1.397H.582v-3.013Z" fill="#fff"/></svg>
